X:18
T:Bravi Cosa 
O:No 18 Pages 6-7 William Clarke of Feltwell  MS 1858
I:abc2nwc
M:6/8
L:1/8
K:C
G|c2c cde|f2d B2G|c2c cde|d2B G2G|
c2c cde|f2d B2G|c2e dcd|c3c2d|
d2B d2A|B2c d2e|d2B c2A|B2d c2A|
B2d c2A|B3B2G|c2c cBc|B2A G2g|
a2f g2e|f2d e2G|(cB)c (cB)c|B2A G2g|
a2f g2e|fdB c2g|_a2c' f2g|_a2c' f2g|
_a2zB2B|c2d e2f|e2zd2z|g2ze2z|
f2zd2z|c2zz2E|E2G G2c|c2e e2c|
e2e dcd|c2zz2E|E2G G2c|c2e e2c|
g2g fef|e2zz2c|e2e dcd|c2zz2:|

